X:64
T:Pig Ankle Rag
C: Traditional
R: Rag
M:4/4
Q:1/4=150
L:1/8
K:D
af |: "A7"gecA- A2af | gecA- AABA | "D"dABA dABA | dBAF- F2af|
| "A7"gecA- A2af | gecA- AABA | "D"dABA dABA | dBAd- dBdA |
| "G"B4 d3e | "D"fa2a bafd | "A7"Acea fdec |1 "D"d2 a3^g af:|2 "D"d6 cB |]
|: "A7"ABcA BcAB | cABc- cBAF| "D"D2dA BdAB | dABd- dBAF |
| "A7"ABcA BcAB | cABc- cBAF | "D"D2dA BdAB | dABd- dBdA |
| "G"B4 d3e | "D"fa2a bafd | "A7"Acea fdec |1 "D"d2 [f4d6] cB :|2 "D"d8 |]


